media/apps/tk.svg

<?xml version="1.0" encoding="utf-8"?>
<!-- Generator: Adobe Illustrator 25.3.1, SVG Export Plug-In . SVG Version: 6.00 Build 0)  -->
<svg version="1.1" id="Layer_1" xmlns:sketch="http://www.bohemiancoding.com/sketch/ns"
	 xmlns="http://www.w3.org/2000/svg" xmlns:xlink="http://www.w3.org/1999/xlink" x="0px" y="0px" viewBox="0 0 20 20"
	 style="enable-background:new 0 0 20 20;" xml:space="preserve">
<style type="text/css">
	.st0{fill-rule:evenodd;clip-rule:evenodd;fill:#EBFFFB;}
	.st1{fill-rule:evenodd;clip-rule:evenodd;}
</style>
<desc></desc>
<g>
	<circle class="st0" cx="9.9" cy="10" r="8.7"/>
</g>
<g id="Page-1">
	<g id="Core" transform="translate(-296.000000, -296.000000)">
		<g id="language" transform="translate(296.000000, 296.000000)">
			<path id="Shape" class="st1" d="M10,0C4.5,0,0,4.5,0,10s4.5,10,10,10s10-4.5,10-10S15.5,0,10,0L10,0z M16.9,6H14
				c-0.3-1.3-0.8-2.4-1.4-3.6C14.4,3.1,16,4.3,16.9,6L16.9,6z M10,2c0.8,1.2,1.5,2.5,1.9,4H8.1C8.5,4.6,9.2,3.2,10,2L10,2z M2.3,12
				C2.1,11.4,2,10.7,2,10s0.1-1.4,0.3-2h3.4c-0.1,0.7-0.1,1.3-0.1,2s0.1,1.3,0.1,2H2.3L2.3,12z M3.1,14H6c0.3,1.3,0.8,2.4,1.4,3.6
				C5.6,16.9,4,15.7,3.1,14L3.1,14z M6,6H3.1c1-1.7,2.5-2.9,4.3-3.6C6.8,3.6,6.3,4.7,6,6L6,6z M10,18c-0.8-1.2-1.5-2.5-1.9-4h3.8
				C11.5,15.4,10.8,16.8,10,18L10,18z M12.3,12H7.7c-0.1-0.7-0.2-1.3-0.2-2s0.1-1.3,0.2-2h4.7c0.1,0.7,0.2,1.3,0.2,2
				S12.4,11.3,12.3,12L12.3,12z M12.6,17.6c0.6-1.1,1.1-2.3,1.4-3.6h2.9C16,15.7,14.4,16.9,12.6,17.6L12.6,17.6z M14.4,12
				c0.1-0.7,0.1-1.3,0.1-2s-0.1-1.3-0.1-2h3.4c0.2,0.6,0.3,1.3,0.3,2s-0.1,1.4-0.3,2H14.4L14.4,12z"/>
		</g>
	</g>
</g>
</svg>

<?xml version="1.0" ?><svg height="20px" version="1.1" viewBox="0 0 20 20" width="20px" xmlns="http://www.w3.org/2000/svg" xmlns:sketch="http://www.bohemiancoding.com/sketch/ns" xmlns:xlink="http://www.w3.org/1999/xlink"><title/><desc/><defs/><g fill="none" fill-rule="evenodd" id="Page-1" stroke="none" stroke-width="1"><g fill="#000000" id="Core" transform="translate(-296.000000, -296.000000)"><g id="language" transform="translate(296.000000, 296.000000)"><path d="M10,0 C4.5,0 0,4.5 0,10 C0,15.5 4.5,20 10,20 C15.5,20 20,15.5 20,10 C20,4.5 15.5,0 10,0 L10,0 Z M16.9,6 L14,6 C13.7,4.7 13.2,3.6 12.6,2.4 C14.4,3.1 16,4.3 16.9,6 L16.9,6 Z M10,2 C10.8,3.2 11.5,4.5 11.9,6 L8.1,6 C8.5,4.6 9.2,3.2 10,2 L10,2 Z M2.3,12 C2.1,11.4 2,10.7 2,10 C2,9.3 2.1,8.6 2.3,8 L5.7,8 C5.6,8.7 5.6,9.3 5.6,10 C5.6,10.7 5.7,11.3 5.7,12 L2.3,12 L2.3,12 Z M3.1,14 L6,14 C6.3,15.3 6.8,16.4 7.4,17.6 C5.6,16.9 4,15.7 3.1,14 L3.1,14 Z M6,6 L3.1,6 C4.1,4.3 5.6,3.1 7.4,2.4 C6.8,3.6 6.3,4.7 6,6 L6,6 Z M10,18 C9.2,16.8 8.5,15.5 8.1,14 L11.9,14 C11.5,15.4 10.8,16.8 10,18 L10,18 Z M12.3,12 L7.7,12 C7.6,11.3 7.5,10.7 7.5,10 C7.5,9.3 7.6,8.7 7.7,8 L12.4,8 C12.5,8.7 12.6,9.3 12.6,10 C12.6,10.7 12.4,11.3 12.3,12 L12.3,12 Z M12.6,17.6 C13.2,16.5 13.7,15.3 14,14 L16.9,14 C16,15.7 14.4,16.9 12.6,17.6 L12.6,17.6 Z M14.4,12 C14.5,11.3 14.5,10.7 14.5,10 C14.5,9.3 14.4,8.7 14.4,8 L17.8,8 C18,8.6 18.1,9.3 18.1,10 C18.1,10.7 18,11.4 17.8,12 L14.4,12 L14.4,12 Z" id="Shape"/></g></g></g></svg>
